app/images/icon/icon-svg/visual.svg

<svg width="97" height="110" viewBox="0 0 97 110" fill="none" xmlns="http://www.w3.org/2000/svg">
<path d="M48.3398 32.2266C50.1197 32.2266 51.5625 30.7837 51.5625 29.0039C51.5625 27.2241 50.1197 25.7812 48.3398 25.7812C46.56 25.7812 45.1172 27.2241 45.1172 29.0039C45.1172 30.7837 46.56 32.2266 48.3398 32.2266Z" fill="#FFC59E"/>
<path d="M72.1506 58.558C75.4222 53.8282 77.3438 48.0835 77.3438 41.8945V29.008C77.3438 29.0065 77.344 29.0052 77.344 29.0039C77.344 29.002 77.3438 29.0003 77.3438 28.9983C77.3407 13.0081 64.3309 0 48.3398 0C32.3471 0 19.3359 13.0112 19.3359 29.0039V41.8945C19.3359 48.0835 21.2575 53.828 24.5289 58.5578C10.5024 60.7024 0 72.9253 0 87.2266V106.777C0 108.557 1.44289 110 3.22266 110H93.457C95.2368 110 96.6797 108.557 96.6797 106.777V87.2266C96.6797 72.9734 86.2243 60.7095 72.1506 58.558ZM48.3398 6.44531C59.6847 6.44531 69.0987 14.8635 70.6673 25.7812H64.1289C62.6317 18.4353 56.1215 12.8906 48.3398 12.8906C40.5582 12.8906 34.048 18.4353 32.5508 25.7812H26.0124C27.581 14.8635 36.995 6.44531 48.3398 6.44531ZM58.0078 29.0039C58.0078 34.3348 53.6708 38.6719 48.3398 38.6719C43.0089 38.6719 38.6719 34.3348 38.6719 29.0039C38.6719 23.673 43.0089 19.3359 48.3398 19.3359C53.6708 19.3359 58.0078 23.673 58.0078 29.0039ZM25.7812 32.2266H32.5508C34.0478 39.5725 40.5582 45.1172 48.3398 45.1172C56.1215 45.1172 62.6317 39.5725 64.1289 32.2266H70.8984V41.8945C70.8984 54.4519 60.7787 64.668 48.3398 64.668C42.7619 64.668 37.6512 62.6126 33.7092 59.2139C33.6445 59.1531 33.5779 59.0945 33.5081 59.0391C28.7757 54.8614 25.7812 48.7246 25.7812 41.8945V32.2266ZM22.5586 84.0039C24.3356 84.0039 25.7812 85.4496 25.7812 87.2266C25.7812 89.0035 24.3356 90.4492 22.5586 90.4492C20.7816 90.4492 19.3359 89.0035 19.3359 87.2266C19.3359 85.4496 20.7816 84.0039 22.5586 84.0039ZM90.2344 103.555H6.44531V87.2266C6.44531 78.5151 11.4939 70.5613 19.3359 66.828V78.1129C15.585 79.4432 12.8906 83.0253 12.8906 87.2266C12.8906 92.5575 17.2277 96.8945 22.5586 96.8945C27.8895 96.8945 32.2266 92.5575 32.2266 87.2266C32.2266 83.0253 29.5322 79.4432 25.7812 78.1129V64.8912C27.2366 64.6858 28.7255 64.6218 30.233 64.7021C35.1989 68.7113 41.4958 71.1133 48.3398 71.1133C54.2979 71.1133 59.8413 69.2933 64.4531 66.1772V71.4375C57.1072 72.9345 51.5625 79.4449 51.5625 87.2266V90.4492C49.7827 90.4492 48.3398 91.8921 48.3398 93.6719C48.3398 95.4516 49.7827 96.8945 51.5625 96.8945H58.0078C59.7876 96.8945 61.2305 95.4516 61.2305 93.6719C61.2305 91.8921 59.7876 90.4492 58.0078 90.4492V87.2266C58.0078 81.8956 62.3449 77.5586 67.6758 77.5586C73.0067 77.5586 77.3438 81.8956 77.3438 87.2266V90.4492C75.564 90.4492 74.1211 91.8921 74.1211 93.6719C74.1211 95.4516 75.564 96.8945 77.3438 96.8945H83.7891C85.5688 96.8945 87.0117 95.4516 87.0117 93.6719C87.0117 91.8921 85.5688 90.4492 83.7891 90.4492V87.2266C83.7891 79.4451 78.2444 72.9347 70.8984 71.4375V64.8908C82.0252 66.4619 90.2344 76.105 90.2344 87.2266V103.555Z" fill="#FFC59E"/>
</svg>

<svg width="97" height="110" fill="none" xmlns="http://www.w3.org/2000/svg"><path d="M48.34 32.227a3.223 3.223 0 100-6.446 3.223 3.223 0 000 6.446z" fill="#FFC59E"/><path d="M72.15 58.558a29.202 29.202 0 005.194-16.663V28.998C77.34 13.008 64.33 0 48.34 0 32.347 0 19.336 13.011 19.336 29.004v12.89a29.203 29.203 0 005.193 16.664C10.502 60.702 0 72.925 0 87.227v19.55A3.223 3.223 0 003.223 110h90.234a3.223 3.223 0 003.223-3.223v-19.55c0-14.254-10.456-26.518-24.53-28.669zM48.34 6.445c11.345 0 20.759 8.418 22.327 19.336H64.13c-1.497-7.346-8.008-12.89-15.79-12.89-7.78 0-14.291 5.544-15.788 12.89h-6.539C27.581 14.864 36.995 6.445 48.34 6.445zm9.668 22.559c0 5.33-4.337 9.668-9.668 9.668-5.331 0-9.668-4.337-9.668-9.668 0-5.331 4.337-9.668 9.668-9.668 5.33 0 9.668 4.337 9.668 9.668zM25.78 32.227h6.77c1.497 7.346 8.007 12.89 15.789 12.89 7.781 0 14.292-5.544 15.789-12.89h6.77v9.668c0 12.557-10.12 22.773-22.56 22.773-5.577 0-10.688-2.055-14.63-5.454a3.19 3.19 0 00-.2-.175 22.819 22.819 0 01-7.728-17.145v-9.667zm-3.22 51.777a3.226 3.226 0 013.222 3.223 3.226 3.226 0 01-3.222 3.222 3.226 3.226 0 01-3.223-3.222 3.226 3.226 0 013.223-3.223zm67.675 19.551H6.445V87.227c0-8.712 5.049-16.666 12.89-20.399v11.285c-3.75 1.33-6.444 4.912-6.444 9.114 0 5.33 4.337 9.667 9.668 9.667 5.33 0 9.668-4.337 9.668-9.667 0-4.202-2.695-7.784-6.446-9.114V64.89a23.06 23.06 0 014.452-.189c4.966 4.01 11.263 6.411 18.107 6.411 5.958 0 11.501-1.82 16.113-4.936v5.26c-7.346 1.498-12.89 8.008-12.89 15.79v3.222a3.223 3.223 0 000 6.445h6.445a3.223 3.223 0 000-6.445v-3.222c0-5.331 4.337-9.668 9.668-9.668 5.33 0 9.668 4.337 9.668 9.668v3.222a3.223 3.223 0 000 6.445h6.445a3.223 3.223 0 000-6.445v-3.222c0-7.782-5.545-14.292-12.89-15.79V64.89c11.126 1.57 19.335 11.214 19.335 22.336v16.328z" fill="#FFC59E"/></svg>
